X:1
T:English Suite VI Gigue
T:BWV 811
T:J. S. Bach
%%score { ( 1 3 5 ) | ( 2 4 ) }
L:1/8
M:12/16
K:F
V:1 treble nm="Harp"
V:3 treble 
V:5 treble 
V:2 bass 
V:4 bass 
V:1
 D/^C/D/ E/C/D/ F/C/D/ G/C/D/ | A/^C/D/ B/A/G/ F/E/D/ ^G/A/=B/ | c z/ ^G z/ A z/ =B z/ | %3
 c z/ d/e/f/ e/d/c/ c/=B/A/ | A/G/^F/ G/4 F/4G/4F/4E/4F/4 G/A/B/ B/A/G/ | %5
 B/4A/4B/4A/4B/4A/4B/4A/4B/4A/4B/4A/4B/4A/4B/4A/4B/4A/4B/4A/4B/4A/4B/4A/4 | %6
 B/4A/4B/4A/4 z/ z3/2 z3 | A/^G/A/ =B/G/A/ c/G/A/ d/G/A/ | e/^G/A/ f/e/d/ ^c/=B/A/ ^d/e/^f/ | %9
 g/a/b/ _e/d/c/ =B/A/G/ ^c/d/=e/ | f/g/a/- a/^f/g/- g/e/=f/- f/d/e/- | %11
 e/^c/d/- d/=B/=c/- c/A/_B/- B/A/G/ | F z/ ^C z/ D z/ E z/ | F z/ ^c z/ =c z/ =B z/ | %14
 A z/ =B z/ _B z/ A z/ | G z/ z3/2 z3 | e/^d/e/ ^f/d/e/ ^g/d/e/ a/d/e/ | %17
 =b/^d/e/ c'/b/a/ ^g/^f/e/ _b/a/=g/ | ^f/e/d/ =f/e/d/ c/=B/A/ ^d/e/^f/- | %19
 f/e/=f/- f/^d/e/- e/d/e/- e/^c/=d/- | d/^c/d/- d/=B/=c/- c/B/c/- c/A/_B/- | %21
 B/A/B/- B/^G/A/- A/G/A/- A/^F/G/ | A/^G/A/ =B/G/A/ ^c/G/A/ d/G/A/ | e/^G/A/ f/e/d/ ^c/e/^g/ a3/2 | %24
 D/^C/D/ E/C/D/ F/C/D/ G/C/D/ | A/^C/D/ B/A/G/ F/E/D/ ^G/A/=B/ | c z/ ^G z/ A z/ =B z/ | %27
 c z/ d/e/f/ e/d/c/ c/=B/A/ | A/G/^F/ G/4 F/4G/4F/4E/4F/4 G/A/B/ B/A/G/ | %29
 B/4A/4B/4A/4B/4A/4B/4A/4B/4A/4B/4A/4B/4A/4B/4A/4B/4A/4B/4A/4B/4A/4B/4A/4 | %30
 B/4A/4B/4A/4 z/ z3/2 z3 | A/^G/A/ =B/G/A/ c/G/A/ d/G/A/ | e/^G/A/ f/e/d/ ^c/=B/A/ ^d/e/^f/ | %33
 g/a/b/ _e/d/c/ =B/A/G/ ^c/d/=e/ | f/g/a/- a/^f/g/- g/e/=f/- f/d/e/- | %35
 e/^c/d/- d/=B/=c/- c/A/_B/- B/A/G/ | F z/ ^C z/ D z/ E z/ | F z/ ^c z/ =c z/ =B z/ | %38
 A z/ =B z/ _B z/ A z/ | G z/ z3/2 z3 | e/^d/e/ ^f/d/e/ ^g/d/e/ a/d/e/ | %41
 =b/^d/e/ c'/b/a/ ^g/^f/e/ _b/a/=g/ | ^f/e/d/ =f/e/d/ c/=B/A/ ^d/e/^f/- | %43
 f/e/=f/- f/^d/e/- e/d/e/- e/^c/=d/- | d/^c/d/- d/=B/=c/- c/B/c/- c/A/_B/- | %45
 B/A/B/- B/^G/A/- A/G/A/- A/^F/G/ | A/^G/A/ =B/G/A/ ^c/G/A/ d/G/A/ | e/^G/A/ f/e/d/ ^c/e/^g/ a3/2 | %48
 z6 | z6 | A/B/A/ G/B/A/ F/B/A/ E/B/A/ | D/B/A/ ^C/D/E/ ^F/G/A/ _E/D/=C/ | %52
 D/4C/4D/ z/ ^D/E/^F/ ^G/A/=B/ =F/E/=D/ | e/f/e/ d/f/e/ c/f/e/ =B/f/e/ | %54
 A/f/e/ ^G/A/=B/ ^c/d/e/ _B/A/=G/ | F z/ ^F z/ G z/ A z/ | B z/ c z/ d z/ =B z/ | %57
 ^c z/ d z/ e z/ c z/ | e/4d/4e/4d/4e/4d/4e/4d/4e/4d/4e/4d/4e/4d/4e/4d/4e/4d/4e/4d/4e/4d/4e/4d/4 | %59
 e/4d/4e/4d/4 z z4 | a/b/a/ g/b/a/ f/b/a/ e/b/a/ | d/b/a/^c/d/e/^f/g/a/e/d/=c/ | %62
 =B/A/^G/ ^d/e/^f/ ^g/a/=b/ =f/e/=d/ | ^c/d/e/ B/A/G/ ^F/G/A/ =F/E/D/ | ^C3 D z/ E z/ | %65
 F z/ B z/ A z/ c z/ | =B z/ f/e/d/ e/f/g/ g/a/b/ | %67
 b/4a/4b/4a/4b/4a/4b/4a/4b/4a/4b/4a/4b/4a/4b/4a/4b/4a/4b/4a/4b/4a/4b/4a/4 | %68
 b/4a/4b/4a/4b/4a/4b/4a/4b/4a/4b/4a/4b/4a/4b/4a/4b/4a/4b/4a/4b/4a/4b/4a/4 | %69
 b/4a/4b/4a/4b/4a/4b/4a/4b/4a/4b/4a/4b/4a/4b/4a/4b/4a/4b/4a/4b/4a/4b/4a/4 | %70
 b/4a/4b/a/ g/b/a/ f/b/a/ e/b/a/ | d/b/a/ ^c/d/e/ f/g/a/ _e/d/c/ | d/^c/d/ E/c/d/ F/c/d/ G/c/d/ | %73
 A/^c/d/ B/A/G/ F/E/D/ f/e/d/ | ^c/=B/A/ b/a/g/ f/e/ z/ g/a/b/- | %75
 b/a/b/- b/g/a/- a/^g/a/- a/^f/=g/- | g/^f/g/- g/e/=f/- f/e/f/- f/d/_e/- | %77
 e/d/_e/- e/^c/d/- d/c/d/- d/=B/c/ | d6- | d6 | z6 | z6 | A/B/A/ G/B/A/ F/B/A/ E/B/A/ | %83
 D/B/A/ ^C/D/E/ ^F/G/A/ _E/D/=C/ | D/4C/4D/ z/ ^D/E/^F/ ^G/A/=B/ =F/E/=D/ | %85
 e/f/e/ d/f/e/ c/f/e/ =B/f/e/ | A/f/e/ ^G/A/=B/ ^c/d/e/ _B/A/=G/ | F z/ ^F z/ G z/ A z/ | %88
 B z/ c z/ d z/ =B z/ | ^c z/ d z/ e z/ c z/ | %90
 e/4d/4e/4d/4e/4d/4e/4d/4e/4d/4e/4d/4e/4d/4e/4d/4e/4d/4e/4d/4e/4d/4e/4d/4 | e/4d/4e/4d/4 z z4 | %92
 a/b/a/ g/b/a/ f/b/a/ e/b/a/ | d/b/a/^c/d/e/^f/g/a/e/d/=c/ | =B/A/^G/ ^d/e/^f/ ^g/a/=b/ =f/e/=d/ | %95
 ^c/d/e/ B/A/G/ ^F/G/A/ =F/E/D/ | ^C3 D z/ E z/ | F z/ B z/ A z/ c z/ | %98
 =B z/ f/e/d/ e/f/g/ g/a/b/ | %99
 b/4a/4b/4a/4b/4a/4b/4a/4b/4a/4b/4a/4b/4a/4b/4a/4b/4a/4b/4a/4b/4a/4b/4a/4 | %100
 b/4a/4b/4a/4b/4a/4b/4a/4b/4a/4b/4a/4b/4a/4b/4a/4b/4a/4b/4a/4b/4a/4b/4a/4 | %101
 b/4a/4b/4a/4b/4a/4b/4a/4b/4a/4b/4a/4b/4a/4b/4a/4b/4a/4b/4a/4b/4a/4b/4a/4 | %102
 b/4a/4b/a/ g/b/a/ f/b/a/ e/b/a/ | d/b/a/ ^c/d/e/ f/g/a/ _e/d/c/ | d/^c/d/ E/c/d/ F/c/d/ G/c/d/ | %105
 A/^c/d/ B/A/G/ F/E/D/ f/e/d/ | ^c/=B/A/ b/a/g/ f/e/ z/ g/a/b/- | %107
 b/a/b/- b/g/a/- a/^g/a/- a/^f/=g/- | g/^f/g/- g/e/=f/- f/e/f/- f/d/_e/- | %109
 e/d/_e/- e/^c/d/- d/c/d/- d/=B/c/ | d6- | d6 |] %112
V:2
 z6 | z6 | A,/^G,/A,/ =B,/G,/A,/ C/G,/A,/ D/G,/A,/ | E/^G,/A,/ F/E/D/ ^B,/=B,/A,/ ^D/E/^F/ | %4
 E z/ _E/D/C/ B,/A,/G,/ ^C/D/=E/ | D,/^C,/D,/ E,/C,/D,/ E,/C,/D,/ G,/C,/D,/ | %6
 A,/^C,/D,/ B,/A,/G,/ F,/E,/D,/ ^G,/A,/=B,/ | C z/ ^G, z/ A, z/ =B, z/ | C z/ =B, z/ A, z/ C z/ | %9
 B, z/ A, z/ ^^F, z/ A, z/ | %10
 E,/4D,/4E,/4D,/4E,/4D,/4E,/4D,/4E,/4D,/4E,/4D,/4E,/4D,/4E,/4D,/4E,/4D,/4E,/4D,/4E,/4D,/4E,/4D,/4 | %11
 E,/4D,/4E,/4D,/4E,/4D,/4E,/4D,/4E,/4D,/4E,/4D,/4E,/4D,/4E,/4D,/4E,/4D,/4E,/4D,/4E,/4D,/4E,/4D,/4 | %12
 D,,/^C,,/D,,/ E,,/C,,/D,,/ F,,/C,,/D,,/ G,,/C,,/D,,/ | %13
 A,,/^C,,/D,,/ B,,/A,,/G,,/ ^F,,/E,,/D,,/ ^G,,/A,,/=B,,/ | %14
 ^B,,/D,/_E,/ _A,,/G,,/F,,/ E,,/D,,/C,,/ ^F,,/G,,/=A,,/ | %15
 B,,/A,,/G,,/ ^C,/D,/E,/ F,/E,/D,/ ^G,/A,/=B,/ | C3 B, z/ A, z/ | ^G, z/ ^F, z/ E, z/ A, z/ | %18
 D, z/ ^G, z/ A, z/ ^F, z/ | %19
 ^F,/4E,/4F,/4E,/4F,/4E,/4F,/4E,/4F,/4E,/4F,/4E,/4F,/4E,/4F,/4E,/4F,/4E,/4F,/4E,/4F,/4E,/4F,/4E,/4 | %20
 ^F,/4E,/4F,/4E,/4F,/4E,/4F,/4E,/4F,/4E,/4F,/4E,/4F,/4E,/4F,/4E,/4F,/4E,/4F,/4E,/4F,/4E,/4F,/4E,/4 | %21
 ^F,/4E,/4F,/4E,/4F,/4E,/4F,/4E,/4F,/4E,/4F,/4E,/4F,/4E,/4F,/4E,/4F,/4E,/4F,/4E,/4F,/4E,/4F,/4E,/4 | %22
 ^C/=B,/C/ D/B,/C/ E/B,/C/ F/E/D/ | ^C/=B,/C/ D/F E3 | z6 | z6 | %26
 A,/^G,/A,/ =B,/G,/A,/ C/G,/A,/ D/G,/A,/ | E/^G,/A,/ F/E/D/ ^B,/=B,/A,/ ^D/E/^F/ | %28
 E z/ _E/D/C/ B,/A,/G,/ ^C/D/=E/ | D,/^C,/D,/ E,/C,/D,/ E,/C,/D,/ G,/C,/D,/ | %30
 A,/^C,/D,/ B,/A,/G,/ F,/E,/D,/ ^G,/A,/=B,/ | C z/ ^G, z/ A, z/ =B, z/ | C z/ =B, z/ A, z/ C z/ | %33
 B, z/ A, z/ ^^F, z/ A, z/ | %34
 E,/4D,/4E,/4D,/4E,/4D,/4E,/4D,/4E,/4D,/4E,/4D,/4E,/4D,/4E,/4D,/4E,/4D,/4E,/4D,/4E,/4D,/4E,/4D,/4 | %35
 E,/4D,/4E,/4D,/4E,/4D,/4E,/4D,/4E,/4D,/4E,/4D,/4E,/4D,/4E,/4D,/4E,/4D,/4E,/4D,/4E,/4D,/4E,/4D,/4 | %36
 D,,/^C,,/D,,/ E,,/C,,/D,,/ F,,/C,,/D,,/ G,,/C,,/D,,/ | %37
 A,,/^C,,/D,,/ B,,/A,,/G,,/ ^F,,/E,,/D,,/ ^G,,/A,,/=B,,/ | %38
 ^B,,/D,/_E,/ _A,,/G,,/F,,/ E,,/D,,/C,,/ ^F,,/G,,/=A,,/ | %39
 B,,/A,,/G,,/ ^C,/D,/E,/ F,/E,/D,/ ^G,/A,/=B,/ | C3 B, z/ A, z/ | ^G, z/ ^F, z/ E, z/ A, z/ | %42
 D, z/ ^G, z/ A, z/ ^F, z/ | %43
 ^F,/4E,/4F,/4E,/4F,/4E,/4F,/4E,/4F,/4E,/4F,/4E,/4F,/4E,/4F,/4E,/4F,/4E,/4F,/4E,/4F,/4E,/4F,/4E,/4 | %44
 ^F,/4E,/4F,/4E,/4F,/4E,/4F,/4E,/4F,/4E,/4F,/4E,/4F,/4E,/4F,/4E,/4F,/4E,/4F,/4E,/4F,/4E,/4F,/4E,/4 | %45
 ^F,/4E,/4F,/4E,/4F,/4E,/4F,/4E,/4F,/4E,/4F,/4E,/4F,/4E,/4F,/4E,/4F,/4E,/4F,/4E,/4F,/4E,/4F,/4E,/4 | %46
 ^C/=B,/C/ D/B,/C/ E/B,/C/ F/E/D/ | ^C/=B,/C/ D/F E3 | E/F/E/ D/F/E/ C/F/E/ =B,/F/E/ | %49
 A,/F/E/ ^G,/A,/=B,/ ^C/D/E/ _B,/A,/=G,/ | ^E, z/ ^A, z/ =A, z/ G, z/ | %51
 ^E, z/ =E,/D,/^C,/ D,/E,/^F,/ F,/G,/A,/ | A,/=B,/C/ C/4B,/4C B,/A,/^G,/ G,/A,/B,/ | %53
 C/4=B,/4C/4B,/4C/4B,/4C/4B,/4C/4B,/4C/4B,/4C/4B,/4C/4B,/4C/4B,/4C/4B,/4C/4B,/4C/4B,/4 | %54
 C/4=B,/4C/4B,/4 z/ z3/2 z3 | D,/_E,/D,/ C,/=E,/D,/ B,,/E,/D,/ A,,/E,/D,/ | %56
 G,,/_E,/D,/ ^F,,/G,,/A,,/ =B,,/C,/D,/ _A,,/G,,/=F,,/ | %57
 E,,/D,,/^C,,/ ^G,,/A,,/=B,,/ ^C,/D,/E,/ _B,,/A,,/=G,,/ | %58
 ^F,,/E,,/D,,/ z/ F,,/E,,/ z/ G,,/F,,/ z/ A,,/G,,/ | z/ B,,/A,,/ z/ C,/=B,,/ z/ D,/^C,/-C,/D,/E,/ | %60
 F, z/ B, z/ A, z/ G, z/ | F, z/ G, z/ A, z/ ^F, z/ | ^G, z/ A, z/ =B, z/ G, z/ | %63
 A, z/ A,,/=B,,/^C,/ D,/E,/^F,/ ^G,/A,/=B,/ | %64
 A,,/B,,/A,,/ G,,/^A,,/=A,,/ F,,/B,,/A,,/ E,,/B,,/A,,/ | %65
 D,,/B,,/A,,/ ^C,,/D,,/E,,/ ^F,,/G,,/A,,/ ^D,,/E,,/F,,/ | %66
 G,,/A,,/=B,,/ ^G,,/A,,/B,,/ ^C,/D,/E,/ _B,,/A,,/=G,,/ | ^E, z/ ^F, z/ G, z/ ^G, z/ | %68
 A, z/ E, z/ ^A, z/ A, z/ | ^B, z/ ^C z/ D z/ A, z/ | B,/^C/D/ z/ C/D/ z/ C/D/ z/ C/D/ | %71
 F,/^C/D/ B,/A,/G,/ F,/E,/D,/ G,/A,/B,/ | A,/B,/A,/ G,/B,/A,/ F,/B,/A,/ E,/B,/A,/ | %73
 D,/B,/A,/ ^C,/D,/E,/ F,/G,/A,/ =B,/^C/D/ |[I:staff -1] E/F/G/ A/=B/c/ dc/ _B/A/G/ | %75
 A[I:staff +1] z2 A, z2 | %76
 B,,/4A,,/4B,,/4A,,/4B,,/4A,,/4B,,/4A,,/4B,,/4A,,/4B,,/4A,,/4B,,/4A,,/4B,,/4A,,/4B,,/4A,,/4B,,/4A,,/4B,,/4A,,/4A,,/4_A,,/4 | %77
 B,,/4A,,/4B,,/4A,,/4B,,/4A,,/4B,,/4A,,/4B,,/4A,,/4B,,/4A,,/4B,,/4A,,/4B,,/4A,,/4B,,/4A,,/4B,,/4A,,/4B,,/4A,,/4B,,/4A,,/4 | %78
 D,/_E,/D,/ C,/E,/D,/ B,,/E,/D,/ A,,/E,/D,/ | G,,/_E,/D,/ ^F,,/G,,/A,,/ B,,/G,,/^C,/ D,,3/2 | %80
 E/F/E/ D/F/E/ C/F/E/ =B,/F/E/ | A,/F/E/ ^G,/A,/=B,/ ^C/D/E/ _B,/A,/=G,/ | %82
 ^E, z/ ^A, z/ =A, z/ G, z/ | ^E, z/ =E,/D,/^C,/ D,/E,/^F,/ F,/G,/A,/ | %84
 A,/=B,/C/ C/4B,/4C B,/A,/^G,/ G,/A,/B,/ | %85
 C/4=B,/4C/4B,/4C/4B,/4C/4B,/4C/4B,/4C/4B,/4C/4B,/4C/4B,/4C/4B,/4C/4B,/4C/4B,/4C/4B,/4 | %86
 C/4=B,/4C/4B,/4 z/ z3/2 z3 | D,/_E,/D,/ C,/=E,/D,/ B,,/E,/D,/ A,,/E,/D,/ | %88
 G,,/_E,/D,/ ^F,,/G,,/A,,/ =B,,/C,/D,/ _A,,/G,,/=F,,/ | %89
 E,,/D,,/^C,,/ ^G,,/A,,/=B,,/ ^C,/D,/E,/ _B,,/A,,/=G,,/ | %90
 ^F,,/E,,/D,,/ z/ F,,/E,,/ z/ G,,/F,,/ z/ A,,/G,,/ | z/ B,,/A,,/ z/ C,/=B,,/ z/ D,/^C,/-C,/D,/E,/ | %92
 F, z/ B, z/ A, z/ G, z/ | F, z/ G, z/ A, z/ ^F, z/ | ^G, z/ A, z/ =B, z/ G, z/ | %95
 A, z/ A,,/=B,,/^C,/ D,/E,/^F,/ ^G,/A,/=B,/ | %96
 A,,/B,,/A,,/ G,,/^A,,/=A,,/ F,,/B,,/A,,/ E,,/B,,/A,,/ | %97
 D,,/B,,/A,,/ ^C,,/D,,/E,,/ ^F,,/G,,/A,,/ ^D,,/E,,/F,,/ | %98
 G,,/A,,/=B,,/ ^G,,/A,,/B,,/ ^C,/D,/E,/ _B,,/A,,/=G,,/ | ^E, z/ ^F, z/ G, z/ ^G, z/ | %100
 A, z/ E, z/ ^A, z/ A, z/ | ^B, z/ ^C z/ D z/ A, z/ | B,/^C/D/ z/ C/D/ z/ C/D/ z/ C/D/ | %103
 F,/^C/D/ B,/A,/G,/ F,/E,/D,/ G,/A,/B,/ | A,/B,/A,/ G,/B,/A,/ F,/B,/A,/ E,/B,/A,/ | %105
 D,/B,/A,/ ^C,/D,/E,/ F,/G,/A,/ =B,/^C/D/ |[I:staff -1] E/F/G/ A/=B/c/ dc/ _B/A/G/ | %107
 A[I:staff +1] z2 A, z2 | %108
 B,,/4A,,/4B,,/4A,,/4B,,/4A,,/4B,,/4A,,/4B,,/4A,,/4B,,/4A,,/4B,,/4A,,/4B,,/4A,,/4B,,/4A,,/4B,,/4A,,/4B,,/4A,,/4A,,/4_A,,/4 | %109
 B,,/4A,,/4B,,/4A,,/4B,,/4A,,/4B,,/4A,,/4B,,/4A,,/4B,,/4A,,/4B,,/4A,,/4B,,/4A,,/4B,,/4A,,/4B,,/4A,,/4B,,/4A,,/4B,,/4A,,/4 | %110
 D,/_E,/D,/ C,/E,/D,/ B,,/E,/D,/ A,,/E,/D,/ | %111
 G,,/_E,/D,/ ^F,,/G,,/A,,/ B,,/G,,/^C,/ !fermata!D,,3/2 |] %112
V:3
 x6 | x6 | x6 | x6 | x6 | F z/ ^C z/ D z/ E z/ | F z/ G/A/B/ A/G/F/ F/E/D/ | %7
 F/4E/4F/4E/4F/4E/4F/4E/4F/4E/4F/4E/4F/4E/4F/4E/4F/4E/4F/4E/4F/4E/4F/4E/4 | %8
 F/4E/4F/4E/4 z/ ^G z/ =G z/ ^F z/ | D z/ ^F z/ =F z/ E/ z | D z/ B z/ A z/ G z/ | x6 | %12
 B,/4A,/4B,/4A,/4B,/4A,/4B,/4A,/4B,/4A,/4B,/4A,/4B,/4A,/4B,/4A,/4B,/4A,/4B,/4A,/4B,/4A,/4B,/4A,/4 | %13
 B,/4A,/4B,/4A,/4 z/ E z/ D z/ F z/ | _E z/ D z/ C z/ E z/ | D z/ A/=B/^c/d/e/f/ B3/2- | %16
 B3/2 A3/2[I:staff +1] D[I:staff -1] z/[I:staff +1] C[I:staff -1] z/ | %17
[I:staff +1] =B,[I:staff -1] z/[I:staff +1] ^D[I:staff -1] z/[I:staff +1] =D[I:staff -1] z/[I:staff +1] ^C[I:staff -1] z/ | %18
[I:staff +1] C[I:staff -1] z/[I:staff +1] =B,[I:staff -1] z/[I:staff +1] A,[I:staff -1]A/- A3/2 | %19
 ^G z/ =G z/ ^F z/ =F z/ | E z/ A z/ ^D z/ =D z/ | ^C z/ =C z/ =B, z/ D z/ | x6 | x6 | x6 | x6 | %26
 x6 | x6 | x6 | F z/ ^C z/ D z/ E z/ | F z/ G/A/B/ A/G/F/ F/E/D/ | %31
 F/4E/4F/4E/4F/4E/4F/4E/4F/4E/4F/4E/4F/4E/4F/4E/4F/4E/4F/4E/4F/4E/4F/4E/4 | %32
 F/4E/4F/4E/4 z/ ^G z/ =G z/ ^F z/ | D z/ ^F z/ =F z/ E/ z | D z/ B z/ A z/ G z/ | x6 | %36
 B,/4A,/4B,/4A,/4B,/4A,/4B,/4A,/4B,/4A,/4B,/4A,/4B,/4A,/4B,/4A,/4B,/4A,/4B,/4A,/4B,/4A,/4B,/4A,/4 | %37
 B,/4A,/4B,/4A,/4 z/ E z/ D z/ F z/ | _E z/ D z/ C z/ E z/ | D z/ A/=B/^c/d/e/f/ B3/2- | %40
 B3/2 A3/2[I:staff +1] D[I:staff -1] z/[I:staff +1] C[I:staff -1] z/ | %41
[I:staff +1] =B,[I:staff -1] z/[I:staff +1] ^D[I:staff -1] z/[I:staff +1] =D[I:staff -1] z/[I:staff +1] ^C[I:staff -1] z/ | %42
[I:staff +1] C[I:staff -1] z/[I:staff +1] =B,[I:staff -1] z/[I:staff +1] A,[I:staff -1]A/- A3/2 | %43
 ^G z/ =G z/ ^F z/ =F z/ | E z/ A z/ ^D z/ =D z/ | ^C z/ =C z/ =B, z/ D z/ | x6 | x6 | x6 | x6 | %50
 x6 | x6 | x6 | C z/ F z/ E z/ D z/ | C z/[I:staff +1] B,/A,/^G,/ A,/B,/^C/ C/D/E/ | %55
[I:staff -1] E/4D/4E/4D/4E/4D/4E/4D/4E/4D/4E/4D/4E/4D/4E/4D/4E/4D/4E/4D/4E/4D/4E/4D/4 | %56
 E/4D/4E/4D/4 z/ _E z/ F z/ D z/ | F z/ F z/ G z/ E z/ | %58
 A z/[I:staff +1] C,[I:staff -1] z/[I:staff +1] D,[I:staff -1] z/[I:staff +1] E,[I:staff -1] z/ | %59
[I:staff +1] ^F,[I:staff -1] z/[I:staff +1] =F,[I:staff -1] z/[I:staff +1] E,[I:staff -1] z/[I:staff +1] _B,[I:staff -1] z/ | %60
 z3/2[I:staff +1] E/4D/4E/4D/4E/4D/4E/4D/4E/4D/4E/4D/4E/4D/4E/4D/4E/4D/4 | %61
 E/4D/4E/4D/4[I:staff -1] z/[I:staff +1] B,[I:staff -1] z/[I:staff +1] C[I:staff -1] z/[I:staff +1] A,[I:staff -1] z/ | %62
[I:staff +1] D[I:staff -1] z/[I:staff +1] C[I:staff -1] z/[I:staff +1] D[I:staff -1] z/[I:staff +1] =B,[I:staff -1] z/ | %63
[I:staff +1] E[I:staff -1] z z4 | %64
[I:staff +1] B,/4A,/4B,/4A,/4B,/4A,/4B,/4A,/4B,/4A,/4B,/4A,/4B,/4A,/4B,/4A,/4B,/4A,/4B,/4A,/4B,/4A,/4B,/4A,/4 | %65
 B,/4A,/4B,/4A,/4[I:staff -1] z/ G z/ D z/ A z/ | E z/ d z/ A z/ ^c z/ | d x z4 | x6 | x6 | x6 | %71
 x6 | x6 | x6 | z3 z d/- d3/2 | ^c z/ =c z/ =B z/ _B z/ | A z/ d z/ ^G z/ =G z/ | %77
 ^F z/ =F z/ E z/ G3/2- | G/^F/G/ A/F/G/ B/F/G/ c/F/G/ | d/A/B/ c/B/A/ G/B/E/ F3/2 | x6 | x6 | x6 | %83
 x6 | x6 | C z/ F z/ E z/ D z/ | C z/[I:staff +1] B,/A,/^G,/ A,/B,/^C/ C/D/E/ | %87
[I:staff -1] E/4D/4E/4D/4E/4D/4E/4D/4E/4D/4E/4D/4E/4D/4E/4D/4E/4D/4E/4D/4E/4D/4E/4D/4 | %88
 E/4D/4E/4D/4 z/ _E z/ F z/ D z/ | F z/ F z/ G z/ E z/ | %90
 A z/[I:staff +1] C,[I:staff -1] z/[I:staff +1] D,[I:staff -1] z/[I:staff +1] E,[I:staff -1] z/ | %91
[I:staff +1] ^F,[I:staff -1] z/[I:staff +1] =F,[I:staff -1] z/[I:staff +1] E,[I:staff -1] z/[I:staff +1] _B,[I:staff -1] z/ | %92
 z3/2[I:staff +1] E/4D/4E/4D/4E/4D/4E/4D/4E/4D/4E/4D/4E/4D/4E/4D/4E/4D/4 | %93
 E/4D/4E/4D/4[I:staff -1] z/[I:staff +1] B,[I:staff -1] z/[I:staff +1] C[I:staff -1] z/[I:staff +1] A,[I:staff -1] z/ | %94
[I:staff +1] D[I:staff -1] z/[I:staff +1] C[I:staff -1] z/[I:staff +1] D[I:staff -1] z/[I:staff +1] =B,[I:staff -1] z/ | %95
[I:staff +1] E[I:staff -1] z z4 | %96
[I:staff +1] B,/4A,/4B,/4A,/4B,/4A,/4B,/4A,/4B,/4A,/4B,/4A,/4B,/4A,/4B,/4A,/4B,/4A,/4B,/4A,/4B,/4A,/4B,/4A,/4 | %97
 B,/4A,/4B,/4A,/4[I:staff -1] z/ G z/ D z/ A z/ | E z/ d z/ A z/ ^c z/ | d x z4 | x6 | x6 | x6 | %103
 x6 | x6 | x6 | z3 z d/- d3/2 | ^c z/ =c z/ =B z/ _B z/ | A z/ d z/ ^G z/ =G z/ | %109
 ^F z/ =F z/ E z/ G3/2- | G/^F/G/ A/F/G/ B/F/G/ c/F/G/ | d/A/B/ c/B/A/ G/B/E/ F3/2 |] %112
V:4
 x6 | x6 | x6 | x6 | x6 | x6 | x6 | x6 | x6 | x6 | x6 | x6 | x6 | x6 | x6 | x6 | x6 | x6 | x6 | %19
 x6 | x6 | x6 | %22
 =B,/4A,/4B,/4A,/4B,/4A,/4B,/4A,/4B,/4A,/4B,/4A,/4B,/4A,/4B,/4A,/4B,/4A,/4B,/4A,/4B,/4A,/4B,/4A,/4 | %23
 =B,/4A,/4B,/4A,/4B,/4A,/4B,/4A,/4B,/4A,/4B,/4A,/4B,/4A,/4B,/4A,/4B,/4A,/4B,/4A,/4B,/4A,/4B,/4A,/4 | %24
 x6 | x6 | x6 | x6 | x6 | x6 | x6 | x6 | x6 | x6 | x6 | x6 | x6 | x6 | x6 | x6 | x6 | x6 | x6 | %43
 x6 | x6 | x6 | %46
 =B,/4A,/4B,/4A,/4B,/4A,/4B,/4A,/4B,/4A,/4B,/4A,/4B,/4A,/4B,/4A,/4B,/4A,/4B,/4A,/4B,/4A,/4B,/4A,/4 | %47
 =B,/4A,/4B,/4A,/4B,/4A,/4B,/4A,/4B,/4A,/4B,/4A,/4B,/4A,/4B,/4A,/4B,/4A,/4B,/4A,/4B,/4A,/4B,/4A,/4 | %48
 x6 | x6 | x6 | x6 | x6 | x6 | x6 | x6 | x6 | x6 | x6 | x6 | x6 | x6 | x6 | x6 | x6 | x6 | x6 | %67
 z/ A,,/^G,,/ z/ B,,/A,,/ z/ B,,/A,,/ z/ C,/=B,,/ | z/ C,/=B,,/ z/ D,/^C,/ z/ D,/C,/ z/ E,/^D,/ | %69
 z/ E,/^D,/ z/ F,/E,/ z/ F,/E,/ z/ G,/^F,/ | G, z/ B, z/ A, z/ G, z/ | x6 | x6 | x6 | x6 | x6 | %76
 x6 | x6 | x6 | x6 | x6 | x6 | x6 | x6 | x6 | x6 | x6 | x6 | x6 | x6 | x6 | x6 | x6 | x6 | x6 | %95
 x6 | x6 | x6 | x6 | z/ A,,/^G,,/ z/ B,,/A,,/ z/ B,,/A,,/ z/ C,/=B,,/ | %100
 z/ C,/=B,,/ z/ D,/^C,/ z/ D,/C,/ z/ E,/^D,/ | z/ E,/^D,/ z/ F,/E,/ z/ F,/E,/ z/ G,/^F,/ | %102
 G, z/ B, z/ A, z/ G, z/ | x6 | x6 | x6 | x6 | x6 | x6 | x6 | x6 | x6 |] %112
V:5
 x6 | x6 | x6 | x6 | x6 | x6 | x6 | x6 | x6 | x6 | x6 | x6 | x6 | x6 | x6 | x6 | x6 | x6 | x6 | %19
 x6 | x6 | x6 | x6 | x6 | x6 | x6 | x6 | x6 | x6 | x6 | x6 | x6 | x6 | x6 | x6 | x6 | x6 | x6 | %38
 x6 | x6 | x6 | x6 | x6 | x6 | x6 | x6 | x6 | x6 | x6 | x6 | x6 | x6 | x6 | x6 | x6 | x6 | x6 | %57
 x6 | x6 | x6 | x6 | x6 | x6 | x6 | x6 | x6 | x6 | x6 | x6 | x6 | x6 | x6 | x6 | x6 | x6 | x6 | %76
 x6 | x6 | x6 | z3 z/ B A3/2 | x6 | x6 | x6 | x6 | x6 | x6 | x6 | x6 | x6 | x6 | x6 | x6 | x6 | %93
 x6 | x6 | x6 | x6 | x6 | x6 | x6 | x6 | x6 | x6 | x6 | x6 | x6 | x6 | x6 | x6 | x6 | x6 | %111
 z3 z/ B !fermata!A3/2 |] %112

